!!!!SEGMENT: Ver2012-Ad_Dominum_cum_tribularer.krn
!!!id: Ver2012
!!!AGN: Motet
!!!SCT: Slim (1972)
!!!voices: 4
!!!COM: Philippe Verdelot
!!!OTL: Ad Dominum cum tribularer
**kern	**kern	**kern	**kern
*part4	*part3	*part2	*part1
*staff4	*staff3	*staff2	*staff1
*I"Bassus	*I"Tenor	*I"Altus	*I"Superius
*I'B	*I'T	*I'A	*I'S
*clefF4	*clefGv2	*clefGv2	*clefG2
*k[]	*k[]	*k[]	*k[]
*C:	*C:	*C:	*C:
*M2/1	*M2/1	*M2/1	*M2/1
*met(C|)	*met(C|)	*met(C|)	*met(C|)
!!Section: Prima pars: Ad Dominum cum tribularer
!!!OMD: Prima pars: Ad Dominum cum tribularer
=1	=1	=1	=1
0r	0r	0r	1d
.	.	.	[1f
=2	=2	=2	=2
0r	0r	0r	2f]
.	.	.	2g
.	.	.	1a
=3	=3	=3	=3
0r	0r	1A	2r
.	.	.	1a
.	.	[1c	.
.	.	.	2g
=4	=4	=4	=4
0r	0r	2c]	1a
.	.	2d	.
.	.	1e	2g
.	.	.	2e
=5	=5	=5	=5
0r	1D	2r	2.f
.	.	1d	.
.	.	.	4g
.	[1F	.	4a
.	.	.	4b-i
.	.	2c	[2a
=6	=6	=6	=6
0r	2F]	1d	2a]
.	2G	.	4g
.	.	.	4f
.	1A	2c	[1e
.	.	2A	.
=7	=7	=7	=7
1AA	2r	2.c	1e]
.	1A	.	.
.	.	4d	.
[1C	.	4e	1r
.	.	4f	.
.	2G	[2e	.
=8	=8	=8	=8
2C]	1A	2e]	0r
2D	.	4d	.
.	.	4c	.
1E	2G	1B	.
.	2E	.	.
=9	=9	=9	=9
2r	2.F	1A	0r
1D	.	.	.
.	4G	.	.
.	4A	1r	.
.	4B-i	.	.
2C	[2A	.	.
=10	=10	=10	=10
1D	2A]	2r	0r
.	4G	2A	.
.	4F	.	.
2C	1E	2.c	.
2AA	.	.	.
.	.	4d	.
=11	=11	=11	=11
2.C	2r	0e	1r
.	2E	.	.
4D	.	.	.
4E	2.G	.	2r
4F	.	.	.
[2E	.	.	2e
.	4A	.	.
=12	=12	=12	=12
2E]	1B	2r	2.g
4D	.	1e	.
4C	.	.	4a
4BB	2r	.	1b
4AA	.	.	.
2BB	[2d	2d	.
=13	=13	=13	=13
2AA	2d]	1e	2r
1A	2c	.	2cc
.	1d	2d	2a
2G	.	2B	2b
=14	=14	=14	=14
1A	2c	2r	1cc
.	2A	2.e	.
2G	2B	.	2b
.	.	4d	.
2E	[2c	8eL	2g
.	.	8d	.
.	.	8c	.
.	.	8BJ	.
=15	=15	=15	=15
2.F	4c]	2A	4a
.	4B	.	4g
.	4A	2.c	4a
4G	4G	.	4b
4A	4F	.	[1cc
4B-i	4G	4B	.
[2A	4A	4A	.
.	4B	4G	.
=16	=16	=16	=16
2A]	4c	1F	2cc]
.	4A	.	.
4G	1d	.	4b
4F	.	.	4a
4E	.	1G	1g
4D	.	.	.
2E	2c#i	.	.
=17	=17	=17	=17
0D	1d	2A	2f
.	.	2A	2a
.	1r	2.f	2.a
.	.	4e	4g
=18	=18	=18	=18
1r	2r	2d	2f
.	2A	2c	2e
2r	2.f	1d	1d
2D	.	.	.
.	4e	.	.
=19	=19	=19	=19
2.F	2d	2r	2r
.	2c	2A	2a
4E	.	.	.
2D	2d	2.f	2.a
2C	2A	.	.
.	.	4e	4g
=20	=20	=20	=20
2D	2.A	2d	2f
2AA	.	2c	2e
.	4G	.	.
2BB-X	2F	2d	2d
2C	2E	4c	[2e
.	.	4B	.
=21	=21	=21	=21
2D	2F	[0A	4e]
.	.	.	4d
4C	4E	.	1d
4BB	4D	.	.
1AA	1E	.	.
.	.	.	2c#i
=22	=22	=22	=22
0D	1D	0A_	0d
.	2r	.	.
.	[2D	.	.
=23	=23	=23	=23
1r	2D]	0A]	0r
.	2C	.	.
1D	2D	.	.
.	2F	.	.
=24	=24	=24	=24
2C	2E	0r	0r
1D	2D	.	.
.	1A	.	.
2F	.	.	.
=25	=25	=25	=25
2E	2G	0r	0r
1D	2.A	.	.
.	4B	.	.
2AA	4c	.	.
.	4A	.	.
=26	=26	=26	=26
2GG	2B	0r	0r
2.AA	2.c	.	.
4BB	4B	.	.
4C	[2A	.	.
4AA	.	.	.
=27	=27	=27	=27
1BB	2A]	0r	2r
.	2G#i	.	1d
1AA	1A	.	.
.	.	.	2c
=28	=28	=28	=28
0r	1D	2r	2d
.	.	2d	2f
.	1r	2c	2e
.	.	[2d	2d
=29	=29	=29	=29
0r	0r	2d]	1a
.	.	2f	.
.	.	2e	2g
.	.	[2d	[2a
=30	=30	=30	=30
0r	0r	2d]	4a]
.	.	.	4b
.	.	2A	4cc
.	.	.	4a
.	.	2G	2b
.	.	[2A	[2cc
=31	=31	=31	=31
0r	1r	4A]	4cc]
.	.	4B	4b
.	.	4c	1a
.	.	4A	.
.	2r	1B	.
.	[2d	.	2g#i
=32	=32	=32	=32
2r	2d]	1A	1a
1A	2c	.	.
.	1B	2r	1r
2G	.	[2d	.
=33	=33	=33	=33
1F	1A	4d]	2r
.	.	2c	.
.	.	.	1a
.	.	8BL	.
.	.	8AJ	.
1E	1r	1B	.
.	.	.	2g
=34	=34	=34	=34
0r	1r	4A	1f
.	.	4G	.
.	.	4A	.
.	.	4B	.
.	2r	2.c	1e
.	[2A	.	.
.	.	4B	.
=35	=35	=35	=35
0r	2A]	4A	2c
.	.	4G	.
.	2G	1B	2.d
.	1F	.	.
.	.	.	4c
.	.	[2A	4B
.	.	.	4A
=36	=36	=36	=36
1r	1E	2A]	1B
.	.	2G#i	.
2r	1e	[1A	4A
.	.	.	4B
[2A	.	.	4c
.	.	.	4d
=37	=37	=37	=37
2A]	2c	2A]	4e
.	.	.	4f
2G	2.d	2B	4g
.	.	.	4e
1F	.	2c	4f
.	4c	.	4g
.	4B	2d	[2a
.	4A	.	.
=38	=38	=38	=38
2.E	1B	1.e	2a]
.	.	.	2g#i
4D	.	.	.
2C	1A	.	[1a
[2D	.	[2f	.
=39	=39	=39	=39
2D]	1.d	2f]	0a_
4C	.	4e	.
4BB	.	4d	.
[1AA	.	2e	.
.	4c	[2e	.
.	4B	.	.
=40	=40	=40	=40
1AA]	2c	2e]	1a]
.	2e	2c	.
2r	2d	2d	1a
[2A	[2c	2e	.
=41	=41	=41	=41
2A]	2c]	1f	2r
2F	4B	.	1d
.	4A	.	.
2G	2B	1e	.
2A	2A	.	2c
=42	=42	=42	=42
1B-i	1r	2d	1d
.	.	1d	.
1A	2r	.	1e
.	[2A	2c#i	.
=43	=43	=43	=43
1D	2A]	1d	1f
.	2F	.	.
1r	2G	2B	2e
.	2A	2c	[2f
=44	=44	=44	=44
1r	1B-i	1d	2f]
.	.	.	4e
.	.	.	4d
2r	1A	2e	2c
[2A	.	2c	[2a
=45	=45	=45	=45
2A]	1D	2d	2a]
2F	.	2f	2a
2G	1r	2e	2g
2A	.	[2f	2f
=46	=46	=46	=46
1B-i	0r	4f]	1d
.	.	4e	.
.	.	1d	.
1A	.	.	1e
.	.	2c#i	.
=47	=47	=47	=47
1D	2r	0d	1d
.	2A	.	.
1r	2G	.	2r
.	2F	.	2a
=48	=48	=48	=48
1r	1B-i	2r	2f
.	.	2d	2g
2r	1A	2e	4a
.	.	.	4b
2A	.	2c	4cc
.	.	.	4a
=49	=49	=49	=49
2G	1r	0d	2b
2F	.	.	1a
1B-i	2r	.	.
.	[2d	.	2g
=50	=50	=50	=50
1A	2d]	1e	[0a
.	2c	.	.
1D	[1f	2r	.
.	.	[2d	.
=51	=51	=51	=51
2r	2f]	2d]	0a]
1A	2e	2c	.
.	1c	[1f	.
2F	.	.	.
=52	=52	=52	=52
1.B-i	2.d	2f]	0r
.	.	2e	.
.	4e	.	.
.	4f	2d	.
.	4e	.	.
2A	[2f	2c	.
=53	=53	=53	=53
2F	4f]	2.d	1r
.	4e	.	.
2G	1d	.	.
.	.	4e	.
1A	.	4f	2r
.	.	4d	.
.	2c#i	2e	[2a
=54	=54	=54	=54
1D	1d	[0d	2a]
.	.	.	2f
1r	2r	.	[1b-i
.	[2G	.	.
=55	=55	=55	=55
2r	2G]	1d]	2b-]
1D	2A	.	2a
.	2B-X	1r	2f
2E	2G	.	2g
=56	=56	=56	=56
2F	2.d	1r	1a
2D	.	.	.
.	4c	.	.
[1G	4B	2r	1d
.	4A	.	.
.	[2B	[2G	.
=57	=57	=57	=57
2G]	2B]	2G]	2r
2F	2A	2A	1d
1G	4G	2B	.
.	4A	.	.
.	4B	2G	2e
.	4G	.	.
=58	=58	=58	=58
1D	2A	0d	2f
.	1B	.	2d
1r	.	.	1g
.	4A	.	.
.	4G	.	.
=59	=59	=59	=59
2r	2B	1d	1f
1D	1A	.	.
.	.	2r	1r
2E	2G	[2c	.
=60	=60	=60	=60
2F	1A	2c]	0r
2D	.	2d	.
1A	2r	2e	.
.	[2A	2c	.
=61	=61	=61	=61
1D	2A]	1f	1r
.	2B	.	.
2r	2c	2e	2r
[2F	2A	[2f	[2a
=62	=62	=62	=62
2F]	1d	2f]	2a]
2G	.	4e	2b
.	.	4d	.
2A	2c	1f	2cc
2F	[2d	.	2a
=63	=63	=63	=63
2G	4d]	2e	2b
.	8cL	.	.
.	8BJ	.	.
2A	2c	1f	1a
4D	1d	.	.
4E	.	.	.
4F	.	4e	4g
4G	.	4d	4f
=64	=64	=64	=64
1A	2r	4c	4e
.	.	4B	4d
.	1A	2c	2e
1D	.	1d	[1d
.	2A	.	.
=65	=65	=65	=65
2r	2G	0r	0d]
1D	2F	.	.
.	1A	.	.
2D	.	.	.
=66	=66	=66	=66
2C	2E	1r	2r
2BB	2G	.	1d
1D	1F	2r	.
.	.	[2A	2d
=67	=67	=67	=67
2AA	1E	2A]	2c
2C	.	2A	2c
1BB-X	1r	2G	1d
.	.	2F	.
=68	=68	=68	=68
1AA	2r	1A	2c
.	1e	.	2A
1r	.	2E	1B
.	2e	2G	.
=69	=69	=69	=69
2r	2d	1F	1A
1A	2c	.	.
.	1e	1E	1r
2G	.	.	.
=70	=70	=70	=70
2F	2A	1r	0r
2E	2c	.	.
1G	1B	2r	.
.	.	[2d	.
=71	=71	=71	=71
2D	1A	2d]	2r
2F	.	2d	2d
1E	1r	2c	2e
.	.	2B	2g
=72	=72	=72	=72
1D	2r	1d	4f
.	.	.	4e
.	2D	.	4f
.	.	.	4g
1r	2F	2A	2a
.	[2E	2c	[2g
=73	=73	=73	=73
0r	4E]	1B	4g]
.	4D	.	4f
.	1d	.	4e
.	.	.	4d
.	.	1A	1e
.	2c#i	.	.
=	=	=	=
*M3/1	*M3/1	*M3/1	*M3/1
*met(3)	*met(3)	*met(3)	*met(3)
1r	1d	1r	1d
0G	1r	0B	0d
.	[1G	.	.
=74	=74	=74	=74
1E	1G]	1c	1e
1D	1A	1d	1f
1G	1B	1e	1g
=75	=75	=75	=75
1F	1c	0f	0a
1.D	0d	.	.
.	.	[1d	1f
2C	.	.	.
=76	=76	=76	=76
1BB	1D	1d]	1g
0AA	0E	0c	1.a
.	.	.	2g
=77	=77	=77	=77
0D	0F	1.A	2f
.	.	.	2e
.	.	.	1f
.	.	2B	.
1C	1G	1c	1e
=78	=78	=78	=78
1BB	1D	1G	0d
0AA	0E	0A	.
.	.	.	1c#i
=79	=79	=79	=79
1GG	1G	1r	1d
0G	1r	0B	0d
.	[1G	.	.
=80	=80	=80	=80
1E	1G]	1c	1e
1D	1A	1d	1f
1G	1B	1e	1g
=81	=81	=81	=81
1F	1c	0f	0a
1.D	0d	.	.
.	.	[1d	1f
2C	.	.	.
=82	=82	=82	=82
1BB	1D	1d]	1g
0AA	0E	0c	1.a
.	.	.	2g
=83	=83	=83	=83
0D	0F	1.A	2f
.	.	.	2e
.	.	.	1f
.	.	2B	.
1C	1G	1c	1e
=84	=84	=84	=84
1BB	1D	1G	0d
0AA	0E	0A	.
.	.	.	1c#i
=	=	=	=
00D	00D	00A	00d
=||	=||	=||	=||
*M2/1	*M2/1	*M2/1	*M2/1
*met(C|)	*met(C|)	*met(C|)	*met(C|)
!!Section: Secunda pars: Heu mihi
!!!OMD: Secunda pars: Heu mihi
0r	0A	1r	0e
.	.	1c	.
=85	=85	=85	=85
0r	1A	1c	1f
.	1A	1c	2e
.	.	.	[2f
=86	=86	=86	=86
0r	1.B-X	1d	4f]
.	.	.	4e
.	.	.	4d
.	.	.	4c
.	.	[1f	2d
.	2A	.	2c#X
=87	=87	=87	=87
0r	0A	2f]	0c#i
.	.	2e	.
.	.	[1e	.
=88	=88	=88	=88
0AA	1r	1e]	1r
.	1A	2r	[1c#i
.	.	[2e	.
=89	=89	=89	=89
1AA	1A	2e]	1c#]
.	.	2f	.
1AA	1A	2e	1c#i
.	.	[2f	.
=90	=90	=90	=90
1.BB-X	1.D	4f]	1d
.	.	4e	.
.	.	4d	.
.	.	4c	.
.	.	2d	[1f
2AA	2A	2c	.
=91	=91	=91	=91
0AA	[0A	1c	2f]
.	.	.	2e
.	.	2r	1e
.	.	2A	.
=92	=92	=92	=92
0r	1A]	2c	2r
.	.	2c	2e
.	1r	2B	2g
.	.	2c	2g
=93	=93	=93	=93
0r	0r	2d	2f
.	.	2B	2g
.	.	2A	2a
.	.	2A	2f
=94	=94	=94	=94
0r	1r	4c	2e
.	.	4B	.
.	.	4c	2e
.	.	4d	.
.	2r	2.e	4g
.	.	.	4f
.	2E	.	4g
.	.	8dL	4a
.	.	8cJ	.
=95	=95	=95	=95
0r	2G	4d	2.b-i
.	.	4c	.
.	2G	4d	.
.	.	4e	8aL
.	.	.	8gJ
.	2F	2f	2a
.	2G	2d	[2b-i
=96	=96	=96	=96
1r	2A	2c	4b-]
.	.	.	4a
.	2F	4B	1a
.	.	4A	.
2r	1E	1B	.
2E	.	.	2g#i
=97	=97	=97	=97
2F	2r	1A	1a
2F	2A	.	.
2E	2c	1r	1r
2F	2c	.	.
=98	=98	=98	=98
2G	2B	0r	0r
2E	2c	.	.
2D	2d	.	.
2D	2B	.	.
=99	=99	=99	=99
4F	2A	1r	0r
4E	.	.	.
4F	2A	.	.
4G	.	.	.
[1A	4c	2r	.
.	4B	.	.
.	4c	2A	.
.	4d	.	.
=100	=100	=100	=100
2A]	2e	4c	0r
.	.	4B	.
4G	2A	4c	.
4F	.	4d	.
2G	2B	2.e	.
2A	2c	.	.
.	.	8dL	.
.	.	8cJ	.
=101	=101	=101	=101
2F	2A	2d	0r
2.G	2.B	2.e	.
4F	4A	4d	.
4E	[2A	[2d	.
4D	.	.	.
=102	=102	=102	=102
1E	2A]	2d]	1r
.	2G	2c#i	.
2D	2A	2d	2r
[2D	[2d	[2A	[2f
=103	=103	=103	=103
2D]	2d]	2A]	2f]
2D	2d	2A	2f
1D	1d	1A	1f
=104	=104	=104	=104
0AA	1c#X	1A	1e
.	1r	2r	2r
.	.	2c	2e
=105	=105	=105	=105
0r	0r	2d	2f
.	.	2e	2g
.	.	2.f	2.a
.	.	4e	4g
=106	=106	=106	=106
2r	2r	2d	2f
2E	2G	2c#i	2e
2F	2A	1d	1d
2G	2B	.	.
=107	=107	=107	=107
2.A	2.c	2r	2r
.	.	2c	2e
4G	4B	.	.
2F	2A	2d	2f
2E	2G	2e	2g
=108	=108	=108	=108
1D	2F	2.f	2.a
.	4D	.	.
.	4E	4e	4g
1r	4F	2d	2f
.	4G	.	.
.	2A	2c	2e
=109	=109	=109	=109
1r	2r	0d	0d
.	1G	.	.
2r	.	.	.
[2D	2A	.	.
=110	=110	=110	=110
2D]	2B	0r	0r
2E	2c	.	.
2F	1d	.	.
2G	.	.	.
=111	=111	=111	=111
1A	1c	0r	0r
1G	2B	.	.
.	[2d	.	.
=112	=112	=112	=112
2F	2d]	2r	1r
2.B-i	2d	1G	.
.	2.d	.	2r
4A	.	.	.
2F	.	2A	[2d
.	4c	.	.
=113	=113	=113	=113
2G	2B	2B	2d]
2E	2G	2c	2e
2D	2A	1d	2f
[2G	2B	.	2g
=114	=114	=114	=114
4G]	1A	1c	1a
4F#i	.	.	.
4F#i	.	.	.
8EL	.	.	.
8F#iJ	.	.	.
1G	1r	2B	1g
.	.	[2d	.
=115	=115	=115	=115
2r	0r	2d]	2f
2D	.	2d	1a
2F	.	2c	.
2C	.	[2e	2g
=116	=116	=116	=116
1D	1r	4e]	2.f
.	.	4d	.
.	.	1d	.
.	.	.	8eL
.	.	.	8dJ
1AA	1A	.	1e
.	.	2c#i	.
=117	=117	=117	=117
1r	2B	2.d	1d
.	1d	.	.
.	.	8cL	.
.	.	8BJ	.
1D	.	4A	1r
.	.	4G	.
.	2c	2A	.
=118	=118	=118	=118
2E	2.B	1G	1r
1G	.	.	.
.	8AL	.	.
.	8GJ	.	.
.	2B	1r	1d
2F	2A	.	.
=119	=119	=119	=119
2.E	2G	1r	2e
.	2.c	.	1g
8DL	.	.	.
8CJ	.	.	.
2E	.	2r	.
.	4B	.	.
2D	4B	2d	2f
.	8AL	.	.
.	8BJ	.	.
=120	=120	=120	=120
2C	1c	2e	2.e
2.c	.	1g	.
.	.	.	8dL
.	.	.	8cJ
.	1r	.	2e
4B	.	.	.
4B	.	2f	2d
8AL	.	.	.
8BJ	.	.	.
=121	=121	=121	=121
1c	1r	2.e	2c
.	.	.	2.cc
.	.	8dL	.
.	.	8cJ	.
1r	1G	2e	.
.	.	.	4b
.	.	[2d	4b
.	.	.	8aL
.	.	.	8bJ
=122	=122	=122	=122
1C	1c	4d]	1cc
.	.	4c	.
.	.	2.c	.
1G	1d	.	2r
.	.	4B	.
.	.	4B	2g
.	.	4A	.
=123	=123	=123	=123
2r	2.e	1c	0g
2C	.	.	.
.	8dL	.	.
.	8cJ	.	.
1G	2d	2r	.
.	2e	2G	.
=124	=124	=124	=124
1F	4A	1c	1a
.	4B	.	.
.	4c	.	.
.	4d	.	.
1G	2e	1B	[1g
.	[2d	.	.
=125	=125	=125	=125
0E	2d]	0G	2g]
.	4c#i	.	1g
.	4B	.	.
.	1c#i	.	.
.	.	.	4f
.	.	.	4e
=126	=126	=126	=126
1D	[0d	1A	2f
.	.	.	1a
2r	.	1B	.
[2G	.	.	2g#i
=127	=127	=127	=127
2G]	1d]	1A	1a
2F	.	.	.
2G	2r	2r	1r
2D	[2d	[2A	.
=128	=128	=128	=128
1E	2d]	2A]	2r
.	2c	2G	1g
1D	2d	1A	.
.	2A	.	2f
=129	=129	=129	=129
0r	1B	2G	2g
.	.	2.d	2d
.	2A	.	1e
.	.	8c#iL	.
.	.	8BJ	.
.	2A	2c#i	.
=130	=130	=130	=130
1r	2B	2d	0d
.	2.d	2.f	.
1D	.	.	.
.	4c	4e	.
.	4B	4d	.
.	4A	4c	.
=131	=131	=131	=131
2E	2.G	1B	2r
2.G	.	.	2d
.	4A	.	.
.	2B	1r	2e
4F	.	.	.
4E	[2c	.	[2g
4D	.	.	.
=132	=132	=132	=132
2.C	2c]	1r	4g]
.	.	.	4f
.	4B	.	4e
4D	4A	.	4d
2E	2G	2r	2.c
2F	2A	2A	.
.	.	.	4d
=133	=133	=133	=133
2E	2G	2B	2e
2D	2A	2.d	2f
2.G	1B	.	2d
.	.	4c	.
.	.	4B	[2g
4F	.	4A	.
=134	=134	=134	=134
4E	1c	2.G	4g]
4D	.	.	4f
2C	.	.	2e
.	.	4A	.
2D	2F	2B	2d
2C	2G	[2c	2e
=135	=135	=135	=135
2.F	2.A	2c]	2c
.	.	2A	2.f
4E	4G	.	.
2D	2F	2B	.
.	.	.	4d
2C	2G	2c	[2e
=136	=136	=136	=136
2D	2F	2A	4e]
.	.	.	4d
2BB	2D	2G	1d
1AA	1E	2A	.
.	.	[2A	2c#i
=137	=137	=137	=137
0D	1D	4A]	[0d
.	.	4G	.
.	.	4F	.
.	.	4E	.
.	2r	1F	.
.	2A	.	.
=138	=138	=138	=138
1r	2B	1G	0d]
.	2.d	.	.
1D	.	1r	.
.	4c	.	.
.	4B	.	.
.	4A	.	.
=139	=139	=139	=139
2E	2.G	0r	2r
2.G	.	.	2d
.	4A	.	.
.	2B	.	2e
4F	.	.	.
4E	[2c	.	[2g
4D	.	.	.
=140	=140	=140	=140
2.C	2c]	1r	4g]
.	.	.	4f
.	4B	.	4e
4D	4A	.	4d
2E	2G	2r	2.c
2F	2A	2A	.
.	.	.	4d
=141	=141	=141	=141
2E	2G	2B	2e
2D	2A	2.d	2f
2.G	1B	.	2d
.	.	4c	.
.	.	4B	[2g
4F	.	4A	.
=142	=142	=142	=142
4E	1c	2.G	4g]
4D	.	.	4f
2C	.	.	2e
.	.	4A	.
2D	2F	2B	2d
2C	2G	[2c	2e
=143	=143	=143	=143
2.F	2.A	2c]	2c
.	.	2A	2.f
4E	4G	.	.
2D	2F	2B	.
.	.	.	4d
2C	2G	2c	[2e
=144	=144	=144	=144
2D	2F	2A	4e]
.	.	.	4d
2BB	2D	2G	1d
1AA	1E	1A	.
.	.	.	2c#i
=145	=145	=145	=145
00Dl	00Dl	00Al	00dl
==	==	==	==
*-	*-	*-	*-
!!!system-decoration: [*]
!!!RDF**kern: i = editorial accidental
!!!RDF**kern: l = terminal long
!!!ENC: Benjamin Ory
!!!END: 2022/4/28
!!!EED: Benjamin Ory
!!!EEV: 2022/04/28
!!!YEC: Copyright 2022 Benjamin Ory, All Rights Reserved
!!!ONB: Translated from MusicXML on 2022/04/28
